X:1
%%score { ( 1 3 ) | ( 2 4 ) }
L:1/8
Q:1/4=71
M:2/4
K:D
V:1 treble nm="Piano" snm="Pno."
V:3 treble 
V:2 bass
V:4 bass
[V:1]"^Poco lento"!pp! z4|[V:2](.B,,,.[F,,D,].[B,,F,].[F,,D,])|[V:3]x4|[V:4]x4|
[V:1]z4|:[V:2](.B,,,.[F,,D,].[B,,F,].[F,,D,])|:[V:3]x4|:[V:4]x4|:
[V:1]{E} .D(D/E/ .D).C|[V:2](.B,,,.[F,,D,].[B,,F,].[F,,E,])|[V:3]x4|[V:4]x4|
[V:1]{/DE} !>![F,B,DF]2{/F} !>![B,DFB]2|[V:2](.B,,,.[F,,D,].[B,,F,].[F,,D,])|[V:3]x4|[V:4]x4|
[V:1]!<(!{/c} .B(B/c/ .B).d!<)!|[V:2](.[G,,,G,,].[D,G,B,].[G,,G,].[F,,F,])|[V:3][B,DG] [DG]2 [D^G]|[V:4]x4|
[V:1]!mf!!>(! (!>!c2!>)!!p! F) z|[V:2](.[F,,,F,,].[F,^A,C].[F,A,C].[F,,,F,,])|[V:3][CF^A]3 x|[V:4]x4|
[V:1]!p!{/a} .g(g/a/!<(! .g){/a}.g!<)!|[V:2](.[E,,,E,,].[E,G,B,].[G,B,E].[F,,,F,,])|[V:3]B B2 =c|[V:4]x4|
[V:1]!mf! (!>!g2!>(! f) z!>)!|1[V:2](!>![^G,,,^G,,].[^G,B,D].[A,,,A,,].[A,C])|1[V:3][Bd]2 c z|1[V:4]x4|1
[V:1]!pp!{/d} .c!<(!(c/d/ .c)!<)!{/e}.d|[V:2](.[G,,,G,,].[G,B,E]) (.[F,,,F,,].[F,^A,F])|[V:3][^EB] B2 ^A|[V:4]x4|
[V:1]!>(! B2!>)!!p! z2:|2[V:2](.[B,,,B,,].[F,,F,].[B,,B,].[F,,F,]):|2[V:3][DF]2 x2:|2[V:4]x4:|2
[V:1]!pp!{/d} .c!<(!(c/d/ .c)!<)!{/e}.d||[V:2](.[G,,,G,,].[G,B,E]) (.[F,,,F,,].[F,^A,F])||[V:3][^EB] B2 ^A||[V:4]x4||
[V:1]!>(! B2!>)!!p! z2|:[V:2](.[B,,,B,,].[F,,F,].[B,,B,].[F,,F,])|:[V:3][DF]2 x2|:[V:4]x4|:
[V:1]!mf! !>!c2 !>!c2|[V:2].[A,,,A,,].[E,G,B,].[G,B,E].[E,G,B,]|[V:3]z .[EG] z .[EG]|[V:4]x4|
[V:1]!<(! (c3!<)!!>(! B/A/)!>)!|[V:2].[A,,,A,,].[E,G,B,].[G,B,E].[E,G,B,]|[V:3]z .[EG] z [EG]|[V:4]x4|
[V:1]!p! (GF/G/ .A).c|[V:2].[A,,,A,,].[E,G,A,].[G,A,E].[E,G,A,]|[V:3]z E z G|[V:4]x4|
[V:1](e2 d) z|[V:2].[A,,,A,,].[F,A,].[A,D].[F,A,]|[V:3]z [FA]2 F|[V:4]x4|
[V:1]!pp!{/f} !>!e2{/f} !>!e2|[V:2].[^G,,,^G,,][K:treble].[B,D].[DF].[B,D]|[V:3]z [Bd] z [Bd]|[V:4]x[K:treble] x3|
[V:1]!<(! (e3!<)!!>(! f/e/)!>)!|[V:2][K:bass] .[^G,,,^G,,][K:treble].[B,D].[DF].[B,D]|[V:3]z [Bd]2 d|[V:4][K:bass] x[K:treble] x3|
[V:1]!p! (dc/d/ .e.f)|[V:2][K:bass] .[A,,,A,,].[G,A,C].[A,CE].[G,A,C]|[V:3]z A z c|[V:4][K:bass] x4|
[V:1]!<(! (a2!<)!!f!!>(! ([=c=c']2)!>)!|[V:2].[D,,D,].[D,A,D].[D,A,D].[D,A,D]|[V:3]z [df] x2|[V:4]x4|
[V:1]!p! [Bb])(.[Aa]/.[Bb]/ .[Aa].[Gg])|[V:2].[G,,,G,,].[B,,D,].[D,G,].[B,,^D,]|[V:3]x4|[V:4]x4|
[V:1]!<(! ([Ff]2!<)!!>(! !>![B^dfb]2)!>)!|[V:2].[F,,,F,,].[B,,^D,F,].[D,F,B,].[B,,D,F,]|[V:3]x4|[V:4]x4|
[V:1]!pp! [Gg](.[Ff]/.[Gg]/ .[Ff].[Ee])|[V:2].[E,,,E,,].[G,,B,,].[B,,E,].[G,,=C,]|[V:3]x4|[V:4]x4|
[V:1]!<(! ([^D^d]2!<)!!>(! !>![^GBd^g]2)!>)!|[V:2].[^D,,,^D,,].[^G,,B,,^D,].[B,,D,^G,].[G,,B,,D,]|[V:3]x4|[V:4]x4|
[V:1]!pp! [Ee]([Dd]/[Ee]/ [Dd][=C=c])|[V:2].[=C,,,=C,,].[E,,G,,].[G,,=C,].[_E,,_A,,]|[V:3]x4|[V:4]x4|
[V:1]!<(! ([B,DGB]2 [DGd]2)!<)!|[V:2].[D,,,D,,].[G,,B,,D,].[B,,D,G,].[G,,B,,D,]|[V:3]x4|[V:4]x4|
[V:1]!p! ([EBce]3 [Dd]/[Ee]/)|[V:2].[G,,,G,,].[G,,B,,E,].[B,,E,G,].[G,,B,,E,]|[V:3]x4|[V:4]x4|
[V:1]!pp!!<(! ([Ff]^e/f/!<)!!>(! .f')(F/^G/!>)!|[V:2][F,,,F,,][F,,C,F,] .[F,,C,F,] z|[V:3]x4|[V:4]x4|
[V:1]!pp!!<(! .^A)(A/B/ .c)(c/d/!<)!|[V:2].F,.[^A,C].[A,C].[A,C]|[V:3]x4|[V:4]x4|
[V:1]!mf!!>(! .e)(e/f/ .g)!>)!!p!.^E|[V:2].[G,^A,C].[G,A,C].[G,A,C].[G,A,C]|[V:3]x4|[V:4]x4|
[V:1]!<(! .F(^A/B/ .c)(c/d/!<)!|[V:2].[F,^A,C].[F,A,C].[F,A,C].[F,A,C]|[V:3]x4|[V:4]x4|
[V:1]!mf!!>(! .e)(e/f/ .g)!>)!!p!(G/F/|[V:2].[F,G,^A,C].[F,G,A,C].[F,G,A,C] z|[V:3]x4|[V:4]x4|
[V:1].E)(E/F/ .G)(c'/b/|[V:2].[G,^A,C].[G,A,C].[G,A,C] z|[V:3]x4|[V:4]x4|
[V:1]!<(! .^a)(a/b/!<)!!mf! .c')!p!(g'/f'/|[V:2].[G,^A,C] z .[G,A,C] z|[V:3]x4|[V:4]x4|
[V:1]!>(! .e')(e'/d'/ .c')!>)!!pp!(c'/b/|[V:2].[G,B,CE] z z[K:treble] .G|[V:3]x4|[V:4]x3[K:treble] x|
[V:1]!<(! .^a)(a/b/!<)!!mf!!>(! .c').f!>)!|[V:2].F.[EF].[DF].[CF]|[V:3]x4|[V:4]x4|
[V:1]!pp!{/e} .d(d/e/ .d).c|[V:2][K:bass] .[B,,,B,,](.[F,D].[B,F].[F,E])|[V:3]x4|[V:4][K:bass] x4|
[V:1]{/de} !>![FBdf]2{/f} !>![Bdfb]2|[V:2].[B,,,B,,](.[F,D].[B,DF].[F,B,D])|[V:3]x4|[V:4]x4|
[V:1]!<(!{/c'} .b(b/c'/ .b).d'!<)!|[V:2].[G,,,G,,](.[D,G,B,].[G,,G,].[F,,F,])|[V:3][Bdg] [dg]2 [d^g]|[V:4]x4|
[V:1]!mf!!>(! (!>!c'2!>)!!p! f) z|[V:2](.[F,,,F,,].[F,^A,C].[F,A,C].[F,,,F,,])|[V:3][cf^a]3 x|[V:4]x4|
[V:1]!p!{/a} .g(g/a/!<(! .g){/a}.g!<)!|[V:2](.[E,,,E,,].[E,G,B,].[G,B,E].[F,,,F,,])|[V:3]B B2 =c|[V:4]x4|
[V:1]!mf! (!>!g2!>(! f) z!>)!|1[V:2](!>![^G,,,^G,,].[^G,B,D].[A,,,A,,].[A,C])|1[V:3][Bd]2 c z|1[V:4]x4|1
[V:1]!pp!{/d} .c!<(!(c/d/ .c)!<)!{/e}.d|[V:2](.[G,,,G,,].[G,B,E]) (.[F,,,F,,].[F,^A,F])|[V:3][^EB] B2 ^A|[V:4]x4|
[V:1]!>(! B2!>)!!p! z2:|2[V:2](.[B,,,B,,].[F,,F,].[B,,B,].[F,,F,]):|2[V:3][DF]2 x2:|2[V:4]x4:|2
[V:1]!pp!{/d} .c!<(!(c/d/ .c)!<)!{/g}.f||[V:2](.[G,,,G,,].[G,B,E]) (.[F,,,F,,].[F,^A,F])||[V:3][^EB] B2 e||[V:4]x4||
[V:1]!p!!<(! B4!<)!|[V:2](.[B,,,B,,].[B,,F,].[B,,F,].[B,,F,])|[V:3]z [^DF] z [DF]|[V:4]x4|
[V:1]!mf!!>(! (B2 f2-!>)!|[V:2](.[B,,,B,,].[B,,F,].[B,,F,].[B,,F,])|[V:3]z [^DF] z [DF]|[V:4]x4|
[V:1]!p! fe/f/ .e.d)|[V:2](.[B,,,B,,].[B,,G,].[B,,G,].[B,,G,])|[V:3]z [EG]2 [EG]|[V:4]x4|
[V:1](cd/e/ .d).c|[V:2](.[B,,^A,].[B,,A,].[B,,A,].[B,,A,])|[V:3]z [EG]2 [EG]|[V:4]x4|
[V:1](B2 F) z|[V:2](.[B,,B,].[B,,F,].[B,,F,].[B,,F,])|[V:3]z ^D z D|[V:4]x4|
[V:1]!pp!!<(! (B2 f2-!<)!|[V:2](.[B,,F,].[B,,F,].[B,,F,].[B,,F,])|[V:3]z ^D z D|[V:4]x4|
[V:1]!mf!!>(! fe/f/ .e.d)!>)!|[V:2](.[B,,G,].[B,,G,].[B,,G,].[B,,G,])|[V:3]z [EG]2 [EG]|[V:4]x4|
[V:1]!p! (cB/c/ .d.c)|[V:2](.[B,,^A,].[B,,A,].[B,,A,].[B,,A,])|[V:3]z [EG]2 [EG]|[V:4]x4|
[V:1]!pp! (B2 .B) z|[V:2](.[B,,F,].[B,,F,].[B,,G,].[B,,F,])|[V:3]z [^DF] z [DF]|[V:4]x4|
[V:1](B2 .B) z|[V:2](.[B,,F,].[B,,F,].[B,,G,].[B,,F,])|[V:3]z [^DF] z [DF]|[V:4]x4|
[V:1].[^DFB] z !fermata!z2|[V:2].[B,,F,] z !fermata!z2|[V:3]x4|[V:4]x4|
[V:1]!ff! !>![Bb]2 !fermata!z2|][V:2]!>![B,F]2 !fermata!z2|][V:3]x4|][V:4]{/[B,,,F,,]} !arpeggio![B,,F,]2 x2|]